images/favorite.svg

<svg width="19" height="17" viewBox="0 0 19 17" fill="none" xmlns="http://www.w3.org/2000/svg">
<path d="M9.57663 17C9.27578 17 8.97493 16.9 8.77436 16.6C3.35903 10.5 2.05534 9.1 1.75449 8.7C1.0525 7.8 0.651367 6.6 0.651367 5.4C0.651367 2.4 3.05818 0 6.16698 0C7.47067 0 8.67407 0.5 9.67691 1.3C10.6797 0.5 11.9834 0 13.1868 0C16.1954 0 18.7025 2.4 18.7025 5.4C18.7025 6.7 18.201 7.9 17.3988 8.8L10.3789 16.7C10.1783 16.9 9.97776 17 9.57663 17ZM3.5596 7.5C3.86045 7.9 7.06953 11.5 9.67691 14.4L15.8945 7.4C16.3959 6.9 16.5965 6.2 16.5965 5.4C16.5965 3.6 15.0922 2.1 13.2871 2.1C12.2843 2.1 11.2815 2.6 10.5795 3.4C10.2786 3.7 9.97776 3.8 9.67691 3.8C9.37606 3.8 9.07521 3.6 8.87464 3.4C8.17265 2.6 7.16982 2.1 6.16698 2.1C4.36187 2.1 2.85761 3.6 2.85761 5.4C2.75733 6.3 3.15846 7 3.5596 7.5C3.45931 7.5 3.45931 7.5 3.5596 7.5Z" fill="black"/>
</svg>

<svg width="19" height="17" fill="none" xmlns="http://www.w3.org/2000/svg"><path d="M9.6 17a1 1 0 0 1-.8-.4l-7-7.9A5.4 5.4 0 0 1 6.2 0c1.3 0 2.5.5 3.5 1.3a5.5 5.5 0 0 1 9 4.1c0 1.3-.5 2.5-1.3 3.4l-7 7.9c-.2.2-.4.3-.8.3Zm-6-9.5 6 6.9 6.3-7c.5-.5.7-1.2.7-2 0-1.8-1.5-3.3-3.3-3.3-1 0-2 .5-2.7 1.3-.3.3-.6.4-1 .4L9 3.4a3.7 3.7 0 0 0-2.7-1.3 3.3 3.3 0 0 0-3.3 3.3c-.1.9.3 1.6.7 2.1-.1 0-.1 0 0 0Z" fill="#000"/></svg>
